X:1
T:Lord Strathavens Strathspey
T:Lord Strathavens Strathspey
T:Robert Petrie
C:Robert Petrie
L:1/8
M:4/4
K:F
V:1 treble 
V:1
 A2 | F c3 A c3 dcBA Tc4 | F c3 A c3 d G3 B d3 | F c3 A c3 dcBA Tc4 | B3 c dcBA G2 A2 B2 d2 :| %5
 f3 c fgagf c3 f a3 | c3 f bagfe (g3 g3) a | f3 c fgagf c3 f3 d | c A3 G3 B A2 F2 F2 c2 | %9
 f3 c fgagf c3 f a3 | f3 f bagf (g3 g3) a | b g3 a e3 f c3 f3 d | c A3 G3 BA F3 F || %13

